img/partner-1.svg

<svg width="375" height="156" viewBox="0 0 375 156" fill="none" xmlns="http://www.w3.org/2000/svg">
<rect width="375" height="156" rx="14" fill="#E1E1E1"/>
<path d="M352.994 55.7432C353.101 67.2541 348.491 76.4203 340.557 84.2008C334.017 90.5958 325.976 94.2197 316.863 95.4986C309.037 96.5645 301.425 95.925 294.349 92.3012C286.737 88.4642 281.912 82.3889 280.304 74.182C278.052 62.8842 280.625 52.6523 288.238 43.6993C295.099 35.599 303.891 30.8027 314.397 28.7776C321.473 27.3921 328.442 27.8184 335.197 30.3764C344.31 33.8936 350.528 40.0755 352.887 49.6679C353.101 51.7996 352.887 53.9313 352.994 55.7432ZM297.243 64.5896C297.351 65.2291 297.458 66.4015 297.672 67.4673C298.423 71.624 300.46 74.9281 303.998 77.2729C310.002 81.1099 316.327 80.7902 322.546 77.8059C328.978 74.715 333.052 69.599 334.875 62.7776C335.733 59.7933 335.733 56.809 334.553 53.9312C332.088 47.4297 325.762 43.9124 319.008 44.019C314.612 44.019 310.538 45.4046 306.785 47.9626C301.103 51.7996 297.458 57.0222 297.243 64.5896Z" fill="#00539A"/>
<path d="M118.628 67.1473C118.735 57.8746 121.844 49.8808 128.063 42.9529C135.568 34.6395 145.002 29.8432 156.045 28.4576C165.48 27.2852 174.271 29.0971 181.991 34.8526C188.209 39.5423 191.747 45.8307 192.39 53.7178C192.926 62.0313 190.567 69.5987 186.172 76.5266C180.275 85.6928 172.02 91.6614 161.406 94.4326C152.829 96.6708 144.252 96.7774 135.889 93.3667C126.133 89.4232 120.558 82.1755 119.057 71.9435C118.842 70.3448 118.735 68.746 118.628 67.1473ZM174.593 58.9404C174.486 57.9812 174.486 57.2351 174.378 56.5956C172.77 47.9623 164.944 43.5924 157.117 44.0188C153.15 44.2319 149.505 45.5109 146.182 47.7492C139.427 52.3322 135.46 58.5141 136.747 66.9341C138.033 75.7805 145.431 80.5768 153.794 79.9373C158.833 79.6175 163.228 77.5924 166.981 74.2884C171.591 70.2382 174.164 64.909 174.593 58.9404Z" fill="#00539A"/>
<path d="M70.7037 71.1975C66.0936 71.1975 61.5907 71.1975 56.8733 71.1975C57.6238 66.8276 58.2671 62.6708 59.0175 58.5141C70.2749 58.5141 81.425 58.5141 92.7895 58.5141C92.5751 59.6865 92.4678 60.6457 92.2534 61.7116C90.8597 68.3197 88.8226 74.6081 84.7485 80.1504C78.7446 88.2508 70.8109 93.3667 60.8402 95.1786C53.5497 96.5642 46.3665 96.2445 39.3977 93.5799C30.7135 90.2758 25.2456 84.094 23.3158 75.0345C22.8869 73.116 23.3158 70.9843 23.1014 69.0658C22.5653 62.0313 24.1735 55.4232 27.4971 49.2413C30.8207 43.0595 35.538 38.0501 41.5419 34.3197C49.154 29.6301 57.4094 27.7116 66.308 28.1379C72.848 28.3511 79.0663 29.9498 84.1053 34.4263C87.4289 37.304 89.5731 40.8213 90.9669 44.8714C91.0741 45.1912 90.7524 45.9373 90.538 46.0439C85.1774 48.1755 79.8168 50.2006 74.4562 52.2257C73.7057 50.6269 73.0624 48.9216 72.0975 47.536C69.4172 43.4859 65.3431 41.9937 60.6257 42.3134C51.2982 42.9529 45.9376 48.7084 42.5068 56.7022C40.1482 62.2445 39.7193 68 41.8636 73.862C43.9006 79.0846 48.8324 82.4953 54.4074 82.6018C59.3392 82.7084 63.7349 81.4294 67.3801 77.9122C69.0955 76.1003 70.4893 73.3291 70.7037 71.1975Z" fill="#00539A"/>
<path d="M239.992 30.2695C239.242 34.9592 238.491 39.5423 237.741 44.2319C233.345 44.2319 229.164 44.3385 224.982 44.2319C223.696 44.2319 223.374 44.6582 223.267 45.7241C222.195 52.4388 221.123 59.047 220.051 65.7617C218.871 73.1159 217.692 80.3636 216.405 87.7178C216.084 89.4231 215.869 91.2351 215.548 92.9404C215.441 93.2601 215.012 93.8996 214.797 93.8996C209.437 94.0062 203.969 93.8996 198.501 93.8996C201.181 77.2727 203.969 60.8589 206.649 44.2319C201.932 44.2319 197.322 44.2319 192.497 44.2319C192.819 41.9937 193.14 39.862 193.462 37.8369C193.784 35.7053 194.212 33.5736 194.534 31.4419C194.641 30.6959 194.856 30.2695 195.821 30.2695C210.294 30.2695 224.768 30.2695 239.349 30.2695C239.456 30.2695 239.671 30.2695 239.992 30.2695Z" fill="#00539A"/>
<path d="M263.257 93.793C257.682 93.793 252.107 93.793 246.317 93.793C248.998 77.2727 251.678 60.8589 254.466 44.2319C249.641 44.2319 245.138 44.2319 240.313 44.2319C241.064 39.5423 241.814 34.9592 242.565 30.2695C257.682 30.2695 272.692 30.2695 287.916 30.2695C287.165 34.8526 286.415 39.4357 285.664 44.1253C285.128 44.1253 284.699 44.1253 284.271 44.1253C280.411 44.1253 276.551 44.1253 272.692 44.1253C271.834 44.1253 271.512 44.3385 271.298 45.1912C270.333 51.4796 269.261 57.8745 268.189 64.1629C267.009 70.9843 265.937 77.8056 264.758 84.5203C264.115 87.7178 263.686 90.7021 263.257 93.793Z" fill="#00539A"/>
<path d="M108.979 93.793C103.404 93.793 97.8285 93.793 92.0391 93.793C95.5771 72.583 99.0079 51.4796 102.439 30.2695C108.014 30.2695 113.482 30.2695 119.378 30.2695C115.947 51.4796 112.517 72.583 108.979 93.793Z" fill="#00539A"/>
<path d="M23.6606 104.894H41.1436V108.197H34.2148V128H30.5894V108.197H23.6606V104.894ZM55.0171 128H45.1235V104.894H54.5176C56.3867 104.894 57.9819 105.511 59.3032 106.747C60.6245 107.982 61.2852 109.4 61.2852 111C61.2852 111.924 61.0918 112.773 60.7051 113.546C60.3291 114.32 59.9531 114.857 59.5771 115.158L58.981 115.625C59.0669 115.668 59.1851 115.743 59.3354 115.851C59.4966 115.947 59.7812 116.167 60.1895 116.511C60.5977 116.844 60.9468 117.215 61.2368 117.623C61.5376 118.031 61.8115 118.563 62.0586 119.218C62.3164 119.863 62.4453 120.534 62.4453 121.232C62.4453 123.08 61.7363 124.67 60.3184 126.002C58.9004 127.334 57.1333 128 55.0171 128ZM48.749 124.858H55.0171C56.0913 124.858 56.9937 124.498 57.7241 123.778C58.4546 123.048 58.8198 122.146 58.8198 121.071C58.8198 119.997 58.4546 119.095 57.7241 118.364C57.0044 117.634 56.1021 117.269 55.0171 117.269H48.749V124.858ZM54.5176 108.036H48.749V114.304H54.5176C55.4199 114.304 56.1665 114.008 56.7573 113.417C57.3589 112.816 57.6597 112.069 57.6597 111.178C57.6597 110.275 57.3589 109.529 56.7573 108.938C56.1665 108.336 55.4199 108.036 54.5176 108.036ZM72.5 110.372C70.8457 112.026 70.0186 114.051 70.0186 116.447C70.0186 118.842 70.8457 120.873 72.5 122.538C74.165 124.203 76.1953 125.035 78.5908 125.035C80.9971 125.035 83.0273 124.203 84.6816 122.538C86.3467 120.873 87.1792 118.842 87.1792 116.447C87.1792 114.051 86.3467 112.026 84.6816 110.372C83.0273 108.707 80.9971 107.875 78.5908 107.875C76.1953 107.875 74.165 108.707 72.5 110.372ZM69.9058 124.874C67.564 122.575 66.3931 119.766 66.3931 116.447C66.3931 113.127 67.564 110.318 69.9058 108.02C72.2476 105.721 75.1426 104.571 78.5908 104.571C82.0498 104.571 84.9502 105.721 87.292 108.02C89.6338 110.318 90.8047 113.127 90.8047 116.447C90.8047 119.766 89.6338 122.575 87.292 124.874C84.9502 127.173 82.0498 128.322 78.5908 128.322C75.1426 128.322 72.2476 127.173 69.9058 124.874ZM96.106 104.894H105.339C107.541 104.894 109.383 105.619 110.866 107.069C112.359 108.508 113.105 110.265 113.105 112.338C113.105 114.4 112.359 116.151 110.866 117.591C109.383 119.03 107.541 119.75 105.339 119.75H99.7314V128H96.106V104.894ZM105.339 108.197H99.7314V116.447H105.339C106.478 116.447 107.45 116.055 108.255 115.271C109.061 114.476 109.464 113.498 109.464 112.338C109.464 111.167 109.061 110.184 108.255 109.389C107.45 108.594 106.478 108.197 105.339 108.197ZM138 128H134.375V111.339L121.5 128H118.375V104.894H122V121.571L134.875 104.894H138V128ZM154.839 104.894V116.125L165.232 104.894H169.856L160.946 114.465L170.517 128H166.054L158.464 117.107L154.839 121.071V128H151.213V104.894H154.839ZM171.516 128L181.087 104.894H184.713L194.284 128H190.498L188.016 121.893H177.784L175.303 128H171.516ZM182.908 109.019L179.105 118.59H186.695L182.908 109.019ZM201.89 104.894V116.125L212.283 104.894H216.907L207.997 114.465L217.568 128H213.104L205.515 117.107L201.89 121.071V128H198.264V104.894H201.89ZM227.816 128V104.894H242.656V108.197H231.441V128H227.816ZM249.907 124.697H262.943V128H246.282V104.894H262.621V108.197H249.907V114.304H259.978V117.607H249.907V124.697ZM286.549 104.894V128H282.923V117.929H271.531V128H267.906V104.894H271.531V114.642H282.923V104.894H286.549ZM312.765 128H309.14V111.339L296.265 128H293.139V104.894H296.765V121.571L309.639 104.894H312.765V128ZM338.998 128H335.372V111.339L322.498 128H319.372V104.894H322.997V121.571L335.872 104.894H338.998V128ZM327.622 98.9639C328.062 99.4043 328.61 99.6245 329.265 99.6245C329.931 99.6245 330.484 99.4043 330.925 98.9639C331.365 98.5234 331.585 97.9702 331.585 97.3042H334.051C334.051 98.6255 333.6 99.7266 332.697 100.607C331.795 101.488 330.651 101.929 329.265 101.929C327.879 101.929 326.735 101.488 325.833 100.607C324.931 99.7266 324.479 98.6255 324.479 97.3042H326.961C326.961 97.9595 327.181 98.5127 327.622 98.9639ZM349.068 121.893H346.426L345.765 104.894H349.729L349.068 121.893ZM346.249 127.694C345.819 127.264 345.604 126.765 345.604 126.195C345.604 125.615 345.819 125.11 346.249 124.681C346.678 124.251 347.178 124.036 347.747 124.036C348.316 124.036 348.816 124.251 349.246 124.681C349.675 125.11 349.89 125.615 349.89 126.195C349.89 126.765 349.675 127.264 349.246 127.694C348.816 128.113 348.316 128.322 347.747 128.322C347.178 128.322 346.678 128.113 346.249 127.694Z" fill="#0066A9"/>
</svg>

<svg width="375" height="156" fill="none" xmlns="http://www.w3.org/2000/svg"><rect width="375" height="156" rx="14" fill="#E1E1E1"/><path d="M352.994 55.743c.107 11.511-4.503 20.677-12.437 28.458-6.54 6.395-14.581 10.019-23.694 11.298-7.826 1.066-15.438.426-22.514-3.198-7.612-3.837-12.437-9.912-14.045-18.119-2.252-11.298.321-21.53 7.934-30.483 6.861-8.1 15.653-12.896 26.159-14.921 7.076-1.386 14.045-.96 20.8 1.598 9.113 3.518 15.331 9.7 17.69 19.292.214 2.132 0 4.263.107 6.075zm-55.751 8.847c.108.64.215 1.811.429 2.877.751 4.157 2.788 7.461 6.326 9.806 6.004 3.837 12.329 3.517 18.548.533 6.432-3.091 10.506-8.207 12.329-15.028.858-2.985.858-5.969-.322-8.847-2.465-6.501-8.791-10.019-15.545-9.912-4.396 0-8.47 1.386-12.223 3.944-5.682 3.837-9.327 9.06-9.542 16.627zm-178.615 2.557c.107-9.272 3.216-17.266 9.435-24.194 7.505-8.314 16.939-13.11 27.982-14.495 9.435-1.173 18.226.64 25.946 6.395 6.218 4.69 9.756 10.978 10.399 18.865.536 8.313-1.823 15.88-6.218 22.809-5.897 9.166-14.152 15.134-24.766 17.906-8.577 2.238-17.154 2.344-25.517-1.066-9.756-3.944-15.331-11.192-16.832-21.424-.215-1.598-.322-3.197-.429-4.796zm55.965-8.207c-.107-.959-.107-1.705-.215-2.344-1.608-8.634-9.434-13.004-17.261-12.577-3.967.213-7.612 1.492-10.935 3.73-6.755 4.583-10.722 10.765-9.435 19.185 1.286 8.847 8.684 13.643 17.047 13.003 5.039-.32 9.434-2.345 13.187-5.649 4.61-4.05 7.183-9.379 7.612-15.348zM70.704 71.198h-13.83c.75-4.37 1.393-8.527 2.143-12.684H92.79c-.215 1.172-.322 2.132-.537 3.198-1.393 6.608-3.43 12.896-7.504 18.438-6.004 8.1-13.938 13.217-23.909 15.029-7.29 1.385-14.474 1.066-21.442-1.6-8.685-3.303-14.152-9.485-16.082-18.544-.43-1.919 0-4.05-.215-5.97-.536-7.034 1.073-13.642 4.396-19.824 3.324-6.181 8.041-11.19 14.045-14.921 7.612-4.69 15.867-6.608 24.766-6.182 6.54.213 12.758 1.812 17.797 6.288 3.324 2.878 5.468 6.395 6.862 10.445.107.32-.215 1.066-.429 1.173-5.36 2.132-10.721 4.157-16.082 6.182-.75-1.6-1.394-3.304-2.359-4.69-2.68-4.05-6.754-5.542-11.471-5.223-9.328.64-14.688 6.395-18.12 14.39-2.358 5.541-2.787 11.297-.642 17.159a13.692 13.692 0 0012.543 8.74c4.932.106 9.328-1.173 12.973-4.69 1.716-1.812 3.11-4.583 3.324-6.715zM239.992 30.27c-.75 4.69-1.501 9.272-2.251 13.962-4.396 0-8.577.107-12.759 0-1.286 0-1.608.426-1.715 1.492-1.072 6.715-2.144 13.323-3.216 20.038-1.18 7.354-2.359 14.602-3.646 21.956-.321 1.705-.536 3.517-.857 5.222-.107.32-.536.96-.751.96-5.36.106-10.828 0-16.296 0 2.68-16.627 5.468-33.041 8.148-49.668h-14.152c.322-2.238.643-4.37.965-6.395.322-2.132.75-4.263 1.072-6.395.107-.746.322-1.172 1.287-1.172h44.171z" fill="#00539A"/><path d="M263.257 93.793h-16.94c2.681-16.52 5.361-32.934 8.149-49.561h-14.153c.751-4.69 1.501-9.273 2.252-13.962h45.351c-.751 4.583-1.501 9.166-2.252 13.855h-12.972c-.858 0-1.18.214-1.394 1.066-.965 6.289-2.037 12.683-3.109 18.972-1.18 6.821-2.252 13.643-3.431 20.357-.643 3.198-1.072 6.182-1.501 9.273zm-154.278 0h-16.94c3.538-21.21 6.969-42.313 10.4-63.524h16.939c-3.431 21.21-6.861 42.314-10.399 63.524z" fill="#00539A"/><path d="M23.66 104.894h17.484v3.303h-6.93V128H30.59v-19.803h-6.928v-3.303zM55.018 128h-9.894v-23.106h9.395c1.869 0 3.464.617 4.785 1.853 1.322 1.235 1.982 2.653 1.982 4.253 0 .924-.193 1.773-.58 2.546-.376.774-.752 1.311-1.128 1.612l-.596.467c.086.043.204.118.354.226.162.096.446.316.855.66.408.333.757.704 1.047 1.112.3.408.575.94.822 1.595.257.645.386 1.316.386 2.014 0 1.848-.709 3.438-2.127 4.77-1.418 1.332-3.185 1.998-5.3 1.998zm-6.268-3.142h6.268c1.074 0 1.977-.36 2.707-1.08.73-.73 1.096-1.632 1.096-2.707 0-1.074-.365-1.976-1.096-2.707-.72-.73-1.622-1.095-2.707-1.095H48.75v7.589zm5.769-16.822H48.75v6.268h5.769c.902 0 1.648-.296 2.24-.887.6-.601.902-1.348.902-2.239 0-.903-.301-1.649-.903-2.24-.59-.602-1.337-.902-2.24-.902zm17.982 2.336c-1.654 1.654-2.481 3.679-2.481 6.075 0 2.395.827 4.426 2.481 6.091 1.665 1.665 3.695 2.497 6.09 2.497 2.407 0 4.437-.832 6.092-2.497 1.665-1.665 2.497-3.696 2.497-6.091 0-2.396-.832-4.421-2.497-6.075-1.655-1.665-3.685-2.497-6.091-2.497-2.396 0-4.426.832-6.091 2.497zm-2.594 14.502c-2.342-2.299-3.513-5.108-3.513-8.427 0-3.32 1.171-6.129 3.513-8.427 2.342-2.299 5.237-3.449 8.685-3.449 3.459 0 6.36 1.15 8.701 3.449 2.342 2.298 3.513 5.107 3.513 8.427 0 3.319-1.171 6.128-3.513 8.427-2.342 2.299-5.242 3.448-8.701 3.448-3.448 0-6.343-1.149-8.685-3.448zm26.2-19.98h9.233c2.202 0 4.044.725 5.527 2.175 1.493 1.439 2.239 3.196 2.239 5.269 0 2.062-.746 3.813-2.239 5.253-1.483 1.439-3.325 2.159-5.527 2.159h-5.608V128h-3.625v-23.106zm9.233 3.303h-5.608v8.25h5.608c1.139 0 2.111-.392 2.916-1.176.806-.795 1.209-1.773 1.209-2.933 0-1.171-.403-2.154-1.209-2.949-.805-.795-1.777-1.192-2.916-1.192zM138 128h-3.625v-16.661L121.5 128h-3.125v-23.106H122v16.677l12.875-16.677H138V128zm16.839-23.106v11.231l10.393-11.231h4.624l-8.91 9.571L170.517 128h-4.463l-7.59-10.893-3.625 3.964V128h-3.626v-23.106h3.626zM171.516 128l9.571-23.106h3.626L194.284 128h-3.786l-2.482-6.107h-10.232L175.303 128h-3.787zm11.392-18.981l-3.803 9.571h7.59l-3.787-9.571zm18.982-4.125v11.231l10.393-11.231h4.624l-8.91 9.571L217.568 128h-4.464l-7.589-10.893-3.625 3.964V128h-3.626v-23.106h3.626zM227.816 128v-23.106h14.84v3.303h-11.215V128h-3.625zm22.091-3.303h13.036V128h-16.661v-23.106h16.339v3.303h-12.714v6.107h10.071v3.303h-10.071v7.09zm36.642-19.803V128h-3.626v-10.071h-11.392V128h-3.625v-23.106h3.625v9.748h11.392v-9.748h3.626zM312.765 128h-3.625v-16.661L296.265 128h-3.126v-23.106h3.626v16.677l12.874-16.677h3.126V128zm26.233 0h-3.626v-16.661L322.498 128h-3.126v-23.106h3.625v16.677l12.875-16.677h3.126V128zm-11.376-29.036c.44.44.988.66 1.643.66.666 0 1.219-.22 1.66-.66.44-.44.66-.994.66-1.66h2.466c0 1.322-.451 2.423-1.354 3.303-.902.881-2.046 1.322-3.432 1.322-1.386 0-2.53-.441-3.432-1.322-.902-.88-1.354-1.981-1.354-3.303h2.482c0 .656.22 1.209.661 1.66zm21.446 22.929h-2.642l-.661-16.999h3.964l-.661 16.999zm-2.819 5.801c-.43-.43-.645-.929-.645-1.499 0-.58.215-1.085.645-1.514.429-.43.929-.645 1.498-.645s1.069.215 1.499.645c.429.429.644.934.644 1.514 0 .57-.215 1.069-.644 1.499-.43.419-.93.628-1.499.628-.569 0-1.069-.209-1.498-.628z" fill="#0066A9"/></svg>
